X:1
T:Pop Goes the Weasel
M:6/8
L:1/8
K:C
 G-| c2 c d2 d|e-g e c2 G| c2 c d2 f| e3 c2 G| c2 c d2 d|e-g e c3|\
 a3 d2 f| e3 c2 g| c'2 c' a2 c'|b-d' b g2 g| c'2 c' a2 c'| b3 g3| f2 e f2 g|\
 a2 b c'3| a3 d2 f| e3 c2||
